apps/scalable/discord-canary.svg

<svg xmlns="http://www.w3.org/2000/svg" style="isolation:isolate" width="256" height="256" viewBox="0 0 256 256">
 <defs>
  <filter id="3nsXm4MkfB24a7QNhUNqxobvwPUcostB" width="400%" height="400%" x="-200%" y="-200%" color-interpolation-filters="sRGB" filterUnits="objectBoundingBox">
   <feGaussianBlur xmlns="http://www.w3.org/2000/svg" in="SourceGraphic" stdDeviation="4.294"/>
   <feOffset xmlns="http://www.w3.org/2000/svg" dx="0" dy="4" result="pf_100_offsetBlur"/>
   <feFlood xmlns="http://www.w3.org/2000/svg" flood-opacity=".4"/>
   <feComposite xmlns="http://www.w3.org/2000/svg" in2="pf_100_offsetBlur" operator="in" result="pf_100_dropShadow"/>
   <feBlend xmlns="http://www.w3.org/2000/svg" in="SourceGraphic" in2="pf_100_dropShadow" mode="normal"/>
  </filter>
 </defs>
 <g filter="url(#3nsXm4MkfB24a7QNhUNqxobvwPUcostB)">
  <linearGradient id="_lgradient_61" x1="0" x2="0" y1="0" y2="1" gradientTransform="matrix(244.648309,0,0,228.338396,5.68,11.95)" gradientUnits="userSpaceOnUse">
   <stop offset="0%" style="stop-color:#fabd2f"/>
   <stop offset="100%" style="stop-color:#b57614"/>
  </linearGradient>
  <path fill="url(#_lgradient_61)" d="M 165.688919 11.95 C 239.744626 11.95 250.328309 22.507198 250.328309 96.493859 L 250.328309 155.744653 C 250.328309 229.73091 239.744626 240.288396 165.688919 240.288396 L 90.319393 240.288396 C 16.26369 240.288396 5.68 229.73091 5.68 155.744653 L 5.68 96.493859 C 5.68 22.507198 16.26369 11.95 90.319393 11.95 L 165.688919 11.95 Z"/>
 </g>
 <g opacity=".4">
  <linearGradient id="_lgradient_62" x1=".517" x2=".517" y1="0" y2="1" gradientTransform="matrix(244.65,0,0,228.34,5.68,11.95)" gradientUnits="userSpaceOnUse">
   <stop offset="0%" style="stop-color:#ebdbb2"/>
   <stop offset="12.5%" stop-opacity=".098" style="stop-color:#ebdbb2"/>
   <stop offset="92.5%" stop-opacity=".098" style="stop-color:#282828"/>
   <stop offset="100%" stop-opacity=".498" style="stop-color:#282828"/>
  </linearGradient>
  <path fill="url(#_lgradient_62)" fill-rule="evenodd" d="M 165.06803 11.951234 C 169.395994 11.941409 173.723944 11.990533 178.051908 12.088781 C 181.927398 12.167379 185.802873 12.31475 189.678362 12.540721 C 193.1309 12.737216 196.583423 13.022134 200.026115 13.395476 C 203.085193 13.729518 206.144271 14.181458 209.173842 14.741469 C 211.888645 15.242533 214.57394 15.881143 217.219897 16.6573 C 219.619947 17.354858 221.970814 18.219439 224.242988 19.241215 C 226.357793 20.184394 228.384061 21.304417 230.302129 22.591462 C 232.141505 23.829383 233.862851 25.244151 235.436659 26.80629 C 237.000621 28.378252 238.417046 30.087764 239.656409 31.924995 C 240.944972 33.840824 242.066305 35.864728 243.020409 37.967229 C 244.043389 40.246576 244.908985 42.584873 245.617197 44.972292 C 246.394255 47.615155 247.033606 50.297317 247.535265 53.008956 C 248.095924 56.034984 248.548399 59.080665 248.882828 62.13617 C 249.256611 65.574836 249.541856 69.013506 249.738578 72.462003 C 249.964823 76.323139 250.112361 80.194101 250.200884 84.055237 C 250.289421 88.378131 250.338591 92.701032 250.32876 97.014106 L 250.32876 155.225886 C 250.338591 159.54878 250.289421 163.861854 250.200884 168.184747 C 250.112361 172.05571 249.964823 175.916853 249.738578 179.777981 C 249.541856 183.226485 249.256611 186.674975 248.882828 190.103826 C 248.548399 193.15933 248.095924 196.214835 247.535265 199.240851 C 247.033606 201.942664 246.394255 204.624837 245.617197 207.267703 C 244.908985 209.655115 244.043389 212.003235 243.020409 214.272755 C 242.066305 216.38509 240.944972 218.399156 239.656409 220.314999 C 238.417046 222.152226 237.000621 223.871561 235.436659 225.433697 C 233.862851 226.995832 232.141505 228.410601 230.302129 229.648532 C 228.384061 230.935575 226.357793 232.055598 224.242988 232.998768 C 221.970814 234.020552 219.619947 234.885137 217.219897 235.592507 C 214.57394 236.368672 211.888645 237.007276 209.173842 237.498515 C 206.144271 238.068354 203.085193 238.510465 200.026115 238.844519 C 196.583423 239.21785 193.1309 239.502777 189.678362 239.699269 C 185.802873 239.925235 181.927398 240.072615 178.051908 240.161035 C 173.723944 240.249454 169.395994 240.298581 165.06803 240.288762 L 90.941963 240.288762 C 86.614006 240.298581 82.286049 240.249454 77.9581 240.161035 C 74.08261 240.072615 70.20712 239.925235 66.331638 239.699269 C 62.879108 239.502777 59.426578 239.21785 55.983886 238.844519 C 52.924808 238.510465 49.865733 238.068354 46.836162 237.498515 C 44.121356 237.007276 41.436057 236.368672 38.7901 235.592507 C 36.390053 234.885137 34.039187 234.020552 31.767009 232.998768 C 29.652213 232.055598 27.625943 230.935575 25.707871 229.648532 C 23.868489 228.410601 22.147143 226.995832 20.573343 225.433697 C 19.009377 223.871561 17.592955 222.152226 16.353586 220.314999 C 15.065036 218.399156 13.943701 216.38509 12.989584 214.272755 C 11.966612 212.003235 11.101021 209.655115 10.392811 207.267703 C 9.615746 204.624837 8.976389 201.942664 8.47474 199.240851 C 7.914072 196.214835 7.461604 193.15933 7.127172 190.103826 C 6.753394 186.674975 6.468142 183.226485 6.271417 179.777981 C 6.045183 175.916853 5.897639 172.05571 5.809112 168.184747 C 5.720586 163.861854 5.671405 159.54878 5.681241 155.225886 L 5.681241 97.014106 C 5.671405 92.701032 5.720586 88.378131 5.809112 84.055237 C 5.897639 80.194101 6.045183 76.323139 6.271417 72.462003 C 6.468142 69.013506 6.753394 65.574836 7.127172 62.13617 C 7.461604 59.080665 7.914072 56.034984 8.47474 53.008956 C 8.976389 50.297317 9.615746 47.615155 10.392811 44.972292 C 11.101021 42.584873 11.966612 40.246576 12.989584 37.967229 C 13.943701 35.864728 15.065036 33.840824 16.353586 31.924995 C 17.592955 30.087764 19.009377 28.378252 20.573343 26.80629 C 22.147143 25.244151 23.868489 23.829383 25.707871 22.591462 C 27.625943 21.304417 29.652213 20.184394 31.767009 19.241215 C 34.039187 18.219439 36.390053 17.354858 38.7901 16.6573 C 41.436057 15.881143 44.121356 15.242533 46.836162 14.741469 C 49.865733 14.181458 52.924808 13.729518 55.983886 13.395476 C 59.426578 13.022134 62.879108 12.737216 66.331638 12.540721 C 70.20712 12.31475 74.08261 12.167379 77.9581 12.088781 C 82.286049 11.990533 86.614006 11.941409 90.941963 11.951234 L 165.06803 11.951234 Z M 165.077876 15.959741 C 169.376317 15.949916 173.674759 15.99904 177.973216 16.087463 C 181.799522 16.175886 185.625827 16.323257 189.452133 16.539402 C 192.835809 16.735898 196.219486 17.010992 199.583486 17.384332 C 202.554026 17.698726 205.514751 18.131016 208.445953 18.681203 C 211.023049 19.152792 213.580483 19.761928 216.098564 20.498786 C 218.321569 21.147221 220.495374 21.952852 222.600334 22.896029 C 224.508571 23.750785 226.338116 24.762737 228.069293 25.922059 C 229.692286 27.012609 231.207063 28.260355 232.59398 29.645648 C 233.980897 31.030941 235.230091 32.543956 236.331763 34.165043 C 237.492434 35.894202 238.505568 37.711787 239.361333 39.607968 C 240.305606 41.720292 241.112187 43.891565 241.761369 46.102139 C 242.508934 48.617282 243.108947 51.161898 243.590914 53.735987 C 244.131912 56.663768 244.564709 59.6112 244.889308 62.578282 C 245.263091 65.938355 245.538505 69.308252 245.735227 72.687976 C 245.951626 76.509812 246.10901 80.321821 246.187687 84.143656 C 246.276225 88.437084 246.325394 92.720685 246.325394 97.014106 C 246.325394 97.014106 246.325394 97.014106 246.325394 97.014106 L 246.325394 155.225886 C 246.325394 155.225886 246.325394 155.225886 246.325394 155.225886 C 246.325394 159.519306 246.276225 163.802907 246.187687 168.096328 C 246.10901 171.918164 245.951626 175.739999 245.735227 179.552015 C 245.538505 182.931739 245.263091 186.301629 244.889308 189.671533 C 244.564709 192.628784 244.131912 195.576216 243.590914 198.503994 C 243.108947 201.078094 242.508934 203.622706 241.761369 206.137845 C 241.112187 208.358253 240.305606 210.5197 239.361333 212.63202 C 238.505568 214.528209 237.492434 216.355617 236.331763 218.074952 C 235.230091 219.705853 233.980897 221.218876 232.59398 222.604172 C 231.207063 223.979634 229.692286 225.227385 228.069293 226.317935 C 226.338116 227.477251 224.508571 228.489201 222.600334 229.343951 C 220.495374 230.296956 218.321569 231.092775 216.098564 231.741198 C 213.580483 232.478056 211.023049 233.087202 208.445953 233.558787 C 205.514751 234.108972 202.554026 234.541264 199.583486 234.865483 C 196.219486 235.228995 192.835809 235.513922 189.452133 235.70058 C 185.625827 235.916726 181.799522 236.073926 177.973216 236.152526 C 173.674759 236.25078 169.376317 236.290072 165.077876 236.290072 C 165.077876 236.290072 165.077876 236.290072 165.06803 236.290072 L 90.941963 236.290072 C 90.932125 236.290072 90.932125 236.290072 90.932125 236.290072 C 86.633683 236.290072 82.335234 236.25078 78.036784 236.152526 C 74.210479 236.073926 70.384173 235.916726 66.557868 235.70058 C 63.174195 235.513922 59.790522 235.228995 56.426518 234.865483 C 53.455967 234.541264 50.495253 234.108972 47.564048 233.558787 C 44.986944 233.087202 42.429517 232.478056 39.911433 231.741198 C 37.688439 231.092775 35.514626 230.296956 33.409665 229.343951 C 31.501429 228.489201 29.671886 227.477251 27.940703 226.317935 C 26.31772 225.227385 24.802935 223.979634 23.416022 222.604172 C 22.029109 221.218876 20.779904 219.705853 19.678243 218.074952 C 18.517564 216.355617 17.504428 214.528209 16.648674 212.63202 C 15.704392 210.5197 14.897819 208.358253 14.248626 206.137845 C 13.50107 203.622706 12.901057 201.078094 12.419081 198.503994 C 11.878086 195.576216 11.445291 192.628784 11.120694 189.671533 C 10.746916 186.301629 10.471501 182.931739 10.274776 179.552015 C 10.058378 175.739999 9.900997 171.918164 9.822307 168.096328 C 9.733781 163.802907 9.6846 159.519306 9.6846 155.225886 C 9.6846 155.225886 9.6846 155.225886 9.6846 155.225886 L 9.6846 97.014106 C 9.6846 97.014106 9.6846 97.014106 9.6846 97.014106 C 9.6846 92.720685 9.733781 88.437084 9.822307 84.143656 C 9.900997 80.321821 10.058378 76.509812 10.274776 72.687976 C 10.471501 69.308252 10.746916 65.938355 11.120694 62.578282 C 11.445291 59.6112 11.878086 56.663768 12.419081 53.735987 C 12.901057 51.161898 13.50107 48.617282 14.248626 46.102139 C 14.897819 43.891565 15.704392 41.720292 16.648674 39.607968 C 17.504428 37.711787 18.517564 35.894202 19.678243 34.165043 C 20.779904 32.543956 22.029109 31.030941 23.416022 29.645648 C 24.802935 28.260355 26.31772 27.012609 27.940703 25.922059 C 29.671886 24.762737 31.501429 23.750785 33.409665 22.896029 C 35.514626 21.952852 37.688439 21.147221 39.911433 20.498786 C 42.429517 19.761928 44.986944 19.152792 47.564048 18.681203 C 50.495253 18.131016 53.455967 17.698726 56.426518 17.384332 C 59.790522 17.010992 63.174195 16.735898 66.557868 16.539402 C 70.384173 16.323257 74.210479 16.175886 78.036784 16.087463 C 82.335234 15.99904 86.633683 15.949916 90.932125 15.959741 C 90.932125 15.959741 90.932125 15.959741 90.941963 15.959741 L 165.06803 15.959741 C 165.077876 15.959741 165.077876 15.959741 165.077876 15.959741 Z"/>
 </g>
 <defs>
  <filter id="p8CNnGOq8TE6rsUHc2q8eDvJYF4ckCnH" width="400%" height="400%" x="-200%" y="-200%" color-interpolation-filters="sRGB" filterUnits="objectBoundingBox">
   <feGaussianBlur xmlns="http://www.w3.org/2000/svg" stdDeviation="4.294"/>
  </filter>
 </defs>
 <g opacity=".4" filter="url(#p8CNnGOq8TE6rsUHc2q8eDvJYF4ckCnH)">
  <path d="M 116.705002 78.956001 C 116.705002 78.956001 99.813004 78.588997 81.920998 91.734001 C 64.028999 104.878998 55.5 123.556 55.5 162.751007 C 55.5 162.751007 70.204002 180.449997 97.664001 181.309006 C 97.664001 181.309006 102.265999 175.899994 105.992996 171.231003 C 90.213997 166.561996 84.237 156.854004 84.237 156.854004 C 98.776001 164.981003 108.658997 168.373993 123.735001 168.514999 C 138.811005 168.373993 157.223999 164.981003 171.763 156.854004 C 171.763 156.854004 165.785995 166.561996 150.007004 171.231003 C 153.733994 175.899994 158.335999 181.309006 158.335999 181.309006 C 185.796005 180.449997 200.5 162.751007 200.5 162.751007 C 200.5 123.556 191.970993 104.878998 174.078995 91.734001 C 156.186996 78.588997 139.294998 78.956001 139.294998 78.956001 L 138.044998 80.431 C 160.410004 86.696999 170.597 96.389999 170.597 96.389999 C 157.852997 87.486 136.529007 87.486 128 87.486 C 119.471001 87.486 98.147003 87.486 85.403 96.389999 C 85.403 96.389999 95.589996 86.696999 117.955002 80.431 L 116.705002 78.956001 Z M 106.676003 121.602997 C 113.824997 121.602997 119.595001 128.253006 119.471001 136.529999 C 119.471001 144.807007 113.824997 151.455994 106.676003 151.455994 C 99.653 151.455994 93.882004 144.807007 93.882004 136.529999 C 93.882004 128.253006 99.528 121.602997 106.676003 121.602997 Z M 149.324005 121.602997 C 156.472 121.602997 162.117996 128.253006 162.117996 136.529999 C 162.117996 144.807007 156.347 151.455994 149.324005 151.455994 C 142.175003 151.455994 136.529007 144.807007 136.529007 136.529999 C 136.404999 128.253006 142.175003 121.602997 149.324005 121.602997 Z"/>
 </g>
 <path fill="#ebdbb2" d="M 116.705002 74.692001 C 116.705002 74.692001 99.813004 74.323997 81.920998 87.469002 C 64.028999 100.613998 55.5 119.291 55.5 158.485992 C 55.5 158.485992 70.204002 176.184998 97.664001 177.044998 C 97.664001 177.044998 102.265999 171.634995 105.992996 166.966003 C 90.213997 162.296997 84.237 152.589005 84.237 152.589005 C 98.776001 160.716995 108.658997 164.108994 123.735001 164.251007 C 138.811005 164.108994 157.223999 160.716995 171.763 152.589005 C 171.763 152.589005 165.785995 162.296997 150.007004 166.966003 C 153.733994 171.634995 158.335999 177.044998 158.335999 177.044998 C 185.796005 176.184998 200.5 158.485992 200.5 158.485992 C 200.5 119.291 191.970993 100.613998 174.078995 87.469002 C 156.186996 74.323997 139.294998 74.692001 139.294998 74.692001 L 138.044998 76.166 C 160.410004 82.432999 170.597 92.125 170.597 92.125 C 157.852997 83.221001 136.529007 83.221001 128 83.221001 C 119.471001 83.221001 98.147003 83.221001 85.403 92.125 C 85.403 92.125 95.589996 82.432999 117.955002 76.166 L 116.705002 74.692001 Z M 106.676003 117.338997 C 113.824997 117.338997 119.595001 123.987999 119.471001 132.264999 C 119.471001 140.542007 113.824997 147.192001 106.676003 147.192001 C 99.653 147.192001 93.882004 140.542007 93.882004 132.264999 C 93.882004 123.987999 99.528 117.338997 106.676003 117.338997 Z M 149.324005 117.338997 C 156.472 117.338997 162.117996 123.987999 162.117996 132.264999 C 162.117996 140.542007 156.347 147.192001 149.324005 147.192001 C 142.175003 147.192001 136.529007 140.542007 136.529007 132.264999 C 136.404999 123.987999 142.175003 117.338997 149.324005 117.338997 Z"/>
</svg>

<svg id="svg489" width="256" height="256" style="isolation:isolate" version="1.1" viewBox="0 0 256 256" xmlns="http://www.w3.org/2000/svg">
 <defs id="defs454">
  <filter id="3nsXm4MkfB24a7QNhUNqxobvwPUcostB" x="-.042124" y="-.045133" width="1.0842" height="1.1078" color-interpolation-filters="sRGB">
   <feGaussianBlur id="feGaussianBlur443" in="SourceGraphic" stdDeviation="4.294"/>
   <feOffset id="feOffset445" dx="0" dy="4" result="pf_100_offsetBlur"/>
   <feFlood id="feFlood447" flood-opacity=".4"/>
   <feComposite id="feComposite449" in2="pf_100_offsetBlur" operator="in" result="pf_100_dropShadow"/>
   <feBlend id="feBlend451" in="SourceGraphic" in2="pf_100_dropShadow"/>
  </filter>
  <filter id="MlZIJxASH8rLCVq6nXneoorEUiQVXsU7" x="-.071073" y="-.10069" width="1.1421" height="1.2014" color-interpolation-filters="sRGB">
   <feGaussianBlur id="feGaussianBlur37" stdDeviation="4.294"/>
  </filter>
 </defs>
 <g id="g463" filter="url(#3nsXm4MkfB24a7QNhUNqxobvwPUcostB)">
  <linearGradient id="_lgradient_61" x2="0" y2="1" gradientTransform="matrix(244.65 0 0 228.34 5.68 11.95)" gradientUnits="userSpaceOnUse">
   <stop id="stop456" stop-color="#fabd2f" offset="0"/>
   <stop id="stop458" stop-color="#b57614" offset="1"/>
  </linearGradient>
  <path id="path461" d="m165.69 11.95c74.056 0 84.639 10.557 84.639 84.544v59.251c0 73.986-10.584 84.544-84.639 84.544h-75.37c-74.056 0-84.639-10.557-84.639-84.544v-59.251c0-73.987 10.584-84.544 84.639-84.544h75.37z" fill="url(#_lgradient_61)"/>
 </g>
 <g id="g48" transform="matrix(1.25 0 0 1.25 -32 -34.665)" style="isolation:isolate">
  <g id="g44" filter="url(#MlZIJxASH8rLCVq6nXneoorEUiQVXsU7)" opacity=".4">
   <path id="path42" d="m116.7 78.956s-16.892-0.367-34.784 12.778-26.421 31.822-26.421 71.017c0 0 14.704 17.699 42.164 18.558 0 0 4.602-5.409 8.329-10.078-15.779-4.669-21.756-14.377-21.756-14.377 14.539 8.127 24.422 11.52 39.498 11.661 15.076-0.141 33.489-3.534 48.028-11.661 0 0-5.977 9.708-21.756 14.377 3.727 4.669 8.329 10.078 8.329 10.078 27.46-0.859 42.164-18.558 42.164-18.558 0-39.195-8.529-57.872-26.421-71.017s-34.784-12.778-34.784-12.778l-1.25 1.475c22.365 6.266 32.552 15.959 32.552 15.959-12.744-8.904-34.068-8.904-42.597-8.904s-29.853 0-42.597 8.904c0 0 10.187-9.693 32.552-15.959zm-10.029 42.647c7.149 0 12.919 6.65 12.795 14.927 0 8.277-5.646 14.926-12.795 14.926-7.023 0-12.794-6.649-12.794-14.926s5.646-14.927 12.794-14.927zm42.648 0c7.148 0 12.794 6.65 12.794 14.927s-5.771 14.926-12.794 14.926c-7.149 0-12.795-6.649-12.795-14.926-0.124-8.277 5.646-14.927 12.795-14.927z"/>
  </g>
  <path id="path46" d="m116.7 74.692s-16.892-0.368-34.784 12.777-26.421 31.822-26.421 71.017c0 0 14.704 17.699 42.164 18.559 0 0 4.602-5.41 8.329-10.079-15.779-4.669-21.756-14.377-21.756-14.377 14.539 8.128 24.422 11.52 39.498 11.662 15.076-0.142 33.489-3.534 48.028-11.662 0 0-5.977 9.708-21.756 14.377 3.727 4.669 8.329 10.079 8.329 10.079 27.46-0.86 42.164-18.559 42.164-18.559 0-39.195-8.529-57.872-26.421-71.017s-34.784-12.777-34.784-12.777l-1.25 1.474c22.365 6.267 32.552 15.959 32.552 15.959-12.744-8.904-34.068-8.904-42.597-8.904s-29.853 0-42.597 8.904c0 0 10.187-9.692 32.552-15.959zm-10.029 42.647c7.149 0 12.919 6.649 12.795 14.926 0 8.277-5.646 14.927-12.795 14.927-7.023 0-12.794-6.65-12.794-14.927s5.646-14.926 12.794-14.926zm42.648 0c7.148 0 12.794 6.649 12.794 14.926s-5.771 14.927-12.794 14.927c-7.149 0-12.795-6.65-12.795-14.927-0.124-8.277 5.646-14.926 12.795-14.926z" fill="#ebdbb2"/>
 </g>
 <g id="g476" opacity=".4">
  <linearGradient id="_lgradient_62" x1=".517" x2=".517" y2="1" gradientTransform="matrix(244.65,0,0,228.34,5.68,11.95)" gradientUnits="userSpaceOnUse">
   <stop id="stop465" stop-color="#ebdbb2" offset="0"/>
   <stop id="stop467" stop-color="#ebdbb2" stop-opacity=".098" offset=".125"/>
   <stop id="stop469" stop-color="#282828" stop-opacity=".098" offset=".925"/>
   <stop id="stop471" stop-color="#282828" stop-opacity=".498" offset="1"/>
  </linearGradient>
  <path id="path474" d="m165.07 11.951c4.328-0.009825 8.6559 0.039299 12.984 0.13755 3.8755 0.078598 7.751 0.22597 11.626 0.45194 3.4525 0.1965 6.9051 0.48141 10.348 0.85476 3.0591 0.33404 6.1182 0.78598 9.1477 1.346 2.7148 0.50106 5.4001 1.1397 8.0461 1.9158 2.4 0.69756 4.7509 1.5621 7.0231 2.5839 2.1148 0.94318 4.1411 2.0632 6.0591 3.3502 1.8394 1.2379 3.5607 2.6527 5.1345 4.2148 1.564 1.572 2.9804 3.2815 4.2198 5.1187 1.2886 1.9158 2.4099 3.9397 3.364 6.0422 1.023 2.2793 1.8886 4.6176 2.5968 7.0051 0.77706 2.6429 1.4164 5.325 1.9181 8.0367 0.56066 3.026 1.0131 6.0717 1.3476 9.1272 0.37378 3.4387 0.65903 6.8773 0.85575 10.326 0.22624 3.8611 0.37378 7.7321 0.46231 11.593 0.088537 4.3229 0.13771 8.6458 0.12788 12.959v58.212c0.009831 4.3229-0.039339 8.636-0.12788 12.959-0.088523 3.871-0.23606 7.7321-0.46231 11.593-0.19672 3.4485-0.48197 6.897-0.85575 10.326-0.33443 3.0555-0.7869 6.111-1.3476 9.137-0.50166 2.7018-1.141 5.384-1.9181 8.0269-0.70821 2.3874-1.5738 4.7355-2.5968 7.0051-0.9541 2.1123-2.0754 4.1264-3.364 6.0422-1.2394 1.8372-2.6558 3.5566-4.2198 5.1187-1.5738 1.5621-3.2952 2.9769-5.1345 4.2148-1.9181 1.287-3.9443 2.4071-6.0591 3.3502-2.2722 1.0218-4.623 1.8864-7.0231 2.5937-2.646 0.77616-5.3313 1.4148-8.0461 1.906-3.0296 0.56984-6.0886 1.012-9.1477 1.346-3.4427 0.37333-6.8952 0.65826-10.348 0.85475-3.8755 0.22597-7.751 0.37335-11.626 0.46177-4.328 0.088419-8.6559 0.13755-12.984 0.12773h-74.126c-4.328 0.009819-8.6559-0.039308-12.984-0.12773-3.8755-0.08842-7.751-0.2358-11.626-0.46177-3.4525-0.19649-6.9051-0.48142-10.348-0.85475-3.0591-0.33405-6.1182-0.77616-9.1477-1.346-2.7148-0.49124-5.4001-1.1298-8.0461-1.906-2.4-0.70737-4.7509-1.572-7.0231-2.5937-2.1148-0.94317-4.1411-2.0632-6.0591-3.3502-1.8394-1.2379-3.5607-2.6527-5.1345-4.2148-1.564-1.5621-2.9804-3.2815-4.2198-5.1187-1.2886-1.9158-2.4099-3.9299-3.364-6.0422-1.023-2.2695-1.8886-4.6176-2.5968-7.0051-0.77706-2.6429-1.4164-5.325-1.9181-8.0269-0.56067-3.026-1.0131-6.0815-1.3476-9.137-0.37378-3.4289-0.65903-6.8773-0.85576-10.326-0.22623-3.8611-0.37378-7.7223-0.4623-11.593-0.088526-4.3229-0.13771-8.636-0.12787-12.959v-58.212c-0.009836-4.3131 0.039345-8.636 0.12787-12.959 0.088527-3.8611 0.23607-7.7321 0.4623-11.593 0.19672-3.4485 0.48198-6.8872 0.85576-10.326 0.33443-3.0555 0.7869-6.1012 1.3476-9.1272 0.50165-2.7116 1.141-5.3938 1.9181-8.0367 0.70821-2.3874 1.5738-4.7257 2.5968-7.0051 0.95412-2.1025 2.0755-4.1264 3.364-6.0422 1.2394-1.8372 2.6558-3.5467 4.2198-5.1187 1.5738-1.5621 3.2951-2.9769 5.1345-4.2148 1.9181-1.287 3.9443-2.4071 6.0591-3.3502 2.2722-1.0218 4.623-1.8864 7.0231-2.5839 2.646-0.77616 5.3313-1.4148 8.0461-1.9158 3.0296-0.56001 6.0886-1.012 9.1477-1.346 3.4427-0.37334 6.8952-0.65826 10.348-0.85476 3.8755-0.22597 7.751-0.37334 11.626-0.45194 4.3279-0.098248 8.6559-0.14737 12.984-0.13755h74.126zm0.009846 4.0085c4.2984-0.009825 8.5969 0.039299 12.895 0.12772 3.8263 0.088423 7.6526 0.23579 11.479 0.45194 3.3837 0.1965 6.7674 0.47159 10.131 0.84493 2.9705 0.31439 5.9313 0.74668 8.8625 1.2969 2.5771 0.47159 5.1345 1.0807 7.6526 1.8176 2.223 0.64844 4.3968 1.4541 6.5018 2.3972 1.9082 0.85476 3.7378 1.8667 5.469 3.026 1.623 1.0906 3.1378 2.3383 4.5247 3.7236s2.6361 2.8983 3.7378 4.5194c1.1607 1.7292 2.1738 3.5467 3.0296 5.4429 0.94427 2.1123 1.7509 4.2836 2.4 6.4942 0.74756 2.5151 1.3476 5.0598 1.8295 7.6338 0.541 2.9278 0.9738 5.8752 1.2984 8.8423 0.37378 3.3601 0.6492 6.73 0.84592 10.11 0.2164 3.8218 0.37378 7.6338 0.45246 11.456 0.088538 4.2934 0.13771 8.577 0.13771 12.87v58.212c0 4.2934-0.049169 8.577-0.13771 12.87-0.078677 3.8218-0.23606 7.6437-0.45246 11.456-0.19672 3.3797-0.47214 6.7496-0.84592 10.12-0.3246 2.9573-0.7574 5.9047-1.2984 8.8325-0.48197 2.5741-1.082 5.1187-1.8295 7.6339-0.64918 2.2204-1.4558 4.3819-2.4 6.4942-0.85576 1.8962-1.8689 3.7236-3.0296 5.4429-1.1017 1.6309-2.3509 3.1439-3.7378 4.5292-1.3869 1.3755-2.9017 2.6232-4.5247 3.7138-1.7312 1.1593-3.5607 2.1713-5.469 3.026-2.105 0.953-4.2788 1.7488-6.5018 2.3972-2.5181 0.73686-5.0755 1.346-7.6526 1.8176-2.9312 0.55018-5.8919 0.98248-8.8625 1.3067-3.364 0.36351-6.7477 0.64844-10.131 0.8351-3.8263 0.21615-7.6526 0.37335-11.479 0.45195-4.2985 0.098254-8.5969 0.13755-12.895 0.13755h-0.009846-74.126-0.009838c-4.2984 0-8.5969-0.039292-12.895-0.13755-3.8263-0.0786-7.6526-0.2358-11.479-0.45195-3.3837-0.18666-6.7673-0.47158-10.131-0.8351-2.9706-0.32422-5.9313-0.75651-8.8625-1.3067-2.5771-0.47158-5.1345-1.0807-7.6526-1.8176-2.223-0.64842-4.3968-1.4442-6.5018-2.3972-1.9082-0.85475-3.7378-1.8667-5.469-3.026-1.623-1.0906-3.1378-2.3383-4.5247-3.7138-1.3869-1.3853-2.6361-2.8983-3.7378-4.5292-1.1607-1.7193-2.1738-3.5467-3.0296-5.4429-0.94428-2.1123-1.7509-4.2738-2.4-6.4942-0.74756-2.5151-1.3476-5.0598-1.8295-7.6339-0.541-2.9278-0.97379-5.8752-1.2984-8.8325-0.37378-3.3699-0.64919-6.7398-0.84592-10.12-0.2164-3.812-0.37378-7.6339-0.45247-11.456-0.088526-4.2934-0.13771-8.577-0.13771-12.87v-58.212c0-4.2934 0.049181-8.577 0.13771-12.87 0.07869-3.8218 0.23607-7.6338 0.45247-11.456 0.19672-3.3797 0.47214-6.7496 0.84592-10.11 0.3246-2.9671 0.75739-5.9145 1.2984-8.8423 0.48198-2.5741 1.082-5.1187 1.8295-7.6338 0.64919-2.2106 1.4558-4.3818 2.4-6.4942 0.85575-1.8962 1.8689-3.7138 3.0296-5.4429 1.1017-1.6211 2.3509-3.1341 3.7378-4.5194s2.9017-2.633 4.5247-3.7236c1.7312-1.1593 3.5607-2.1713 5.469-3.026 2.105-0.94318 4.2788-1.7488 6.5018-2.3972 2.5181-0.73686 5.0755-1.346 7.6526-1.8176 2.9312-0.55019 5.8919-0.98248 8.8625-1.2969 3.364-0.37334 6.7477-0.64843 10.131-0.84493 3.8263-0.21614 7.6526-0.36352 11.479-0.45194 4.2984-0.088423 8.5969-0.13755 12.895-0.12772h0.009838 74.126 0.009846z" fill="url(#_lgradient_62)" fill-rule="evenodd"/>
 </g>
</svg>
